X:1
T:Title
%%score { ( 1 4 ) | ( 2 3 ) }
L:1/8
Q:1/4=108
M:3/4
K:D
V:1 treble nm="Grand Piano"
V:4 treble 
V:2 bass 
V:3 bass 
V:1
 [A,DF]2 [DF]2 [CF]2 | [B,FA]4 [B,EG]2 | [A,DF]4[K:bass] [G,CE]2 | [F,D]6 | %4
w: Geroge~C.~Martin * *||||
 [A,CA]2 [A,FA]2 [A,EA]2 | [EFc]4 [DFB]2 | [CEA]4 [B,D^G]2 | [A,CA]6 | [GB]2 [FB]2 [B,EB]2 | %9
w: |||||
 [B,DE]2 [CF]2 [G,B,G]2 | A4 z2 | D6 | G2 G2 G2 | [CB]2 [DA]2 [EG]2 | [DF]4 [DA]2 | d4 z2 | %16
w: |||||||
 [B,DGB]2 [GB]2 [B,^DGB]2 | [B,EGB]4 [B,=FGB]2 | [=CEG=c]4 [B,DGB]2 | [A,DFA]6 | D2 D2 [DE]2 | %21
w: |||||
 [CF]2 [B,G]2 [A,A]2 | D4 C2 |[M:7/4] D6 z2 z2 z4 |[M:3/4] [B,D]6 | [A,D]6 |] %26
w: |||||
V:2
 D,2 B,,2 A,,2 | G,,4 G,,2 | A,,4 A,,2 | D,6 | F,2 D,2 C,2 | B,,4 D,2 | E,4 E,2 | A,,6 | %8
 [E,G,]2 [F,A,]2 G,2 | z2 A,2 A,,2 | [F,A,]2 G,2 A,,2 | [B,,F,]6 | [E,G,B,]2 [F,A,E]2 [G,B,D]2 | %13
 [A,,G,]2 [B,,F,]2 [C,A,]2 | [D,A,]4 [=C,F,]2 | [B,,G,]4 [D,A,]2 | z2 [B,D]2 [F,,F,]2 | %17
 [E,,E,]4 [D,,D,]2 | [=C,,=C,]4 [G,,G,]2 | [D,,D,]6 | [D,F,]2 [C,F,]2 [B,,G,]2 | %21
 [A,,A,]2 [G,,D,]2 [F,,D,]2 | [A,,F,A,]4 [A,,E,A,]2 |[M:7/4] [D,F,A,]6 z2 z2 z4 |[M:3/4] [G,,G,]6 | %25
 [D,F,]6 |] %26
V:3
 x6 | x6 | x6 | x6 | x6 | x6 | x6 | x6 | x6 | A,,4 z2 | D,4 z2 | x6 | x6 | x6 | x6 | x6 | %16
 [G,,G,]4 z2 | x6 | x6 | x6 | x6 | x6 | x6 |[M:7/4] x14 |[M:3/4] x6 | x6 |] %26
V:4
 x6 | x6 | x4[K:bass] x2 | x6 | x6 | x6 | x6 | x6 | x6 | x6 | z2 B,2 [A,CF]2 | x6 | x6 | x6 | x6 | %15
 D2 E2 [F=c]2 | x6 | x6 | x6 | x6 | x6 | x6 | x6 |[M:7/4] x14 |[M:3/4] x6 | x6 |] %26

